tools/download-figma-icons/icons/outlined-medium/tag-electricity.svg

<svg width="24" height="24" viewBox="0 0 24 24" fill="none" xmlns="http://www.w3.org/2000/svg">
<path fill-rule="evenodd" clip-rule="evenodd" d="M13.2346 6.73662C13.2346 7.22937 12.8341 7.62987 12.3421 7.62987C11.8494 7.62987 11.4489 7.22937 11.4489 6.73662C11.4489 6.24462 11.8494 5.84412 12.3421 5.84412C12.8341 5.84412 13.2346 6.24462 13.2346 6.73662ZM5.25539 8.53063C5.66114 8.61763 6.05939 8.36338 6.14864 7.95838C6.60614 5.87413 8.06489 4.23913 9.92189 3.47488C10.2871 3.85363 10.6246 4.29913 10.9044 4.83613C10.3276 5.27338 9.94889 5.95888 9.94889 6.73663C9.94889 8.05663 11.0221 9.12988 12.3421 9.12988C13.6614 9.12988 14.7346 8.05663 14.7346 6.73663C14.7346 5.41738 13.6614 4.34413 12.3421 4.34413C12.3394 4.34413 12.3371 4.34453 12.3349 4.34492C12.3328 4.34528 12.3308 4.34563 12.3286 4.34563C12.0954 3.86338 11.8299 3.43513 11.5396 3.05338C11.8524 3.01513 12.1696 2.99638 12.4906 3.00613C15.8139 3.12763 18.5169 6.04363 18.5169 9.50713V14.8584C18.5169 15.2731 18.8529 15.6084 19.2669 15.6084C19.6816 15.6084 20.0169 15.2731 20.0169 14.8584V9.50713C20.0169 5.24713 16.6659 1.65838 12.5461 1.50763C11.7661 1.47688 11.0086 1.56988 10.2871 1.76038C8.28914 0.167378 5.99639 0.00837799 5.85839 0.000877986C5.43614 -0.015622 5.08964 0.291878 5.06564 0.705878C5.04164 1.11913 5.35739 1.47388 5.77064 1.49788C5.79464 1.49938 7.16864 1.59913 8.58914 2.42863C6.65114 3.47788 5.18639 5.34538 4.68389 7.63738C4.59464 8.04163 4.85039 8.44138 5.25539 8.53063ZM19.2672 16.7701C18.8532 16.7701 18.5172 17.1053 18.5172 17.5201V22.4993H6.00049V10.4956C6.00049 10.0808 5.66449 9.74555 5.25049 9.74555C4.83574 9.74555 4.50049 10.0808 4.50049 10.4956V22.8773C4.50049 23.4961 5.00149 23.9993 5.61874 23.9993H18.899C19.5155 23.9993 20.0172 23.4961 20.0172 22.8773V17.5201C20.0172 17.1053 19.6812 16.7701 19.2672 16.7701ZM9.02162 21.1713C8.94737 21.1713 8.87162 21.1495 8.80712 21.1038C8.65862 21.0003 8.60537 20.806 8.68037 20.641L10.5636 16.4995H8.53862C8.41112 16.4995 8.29187 16.435 8.22287 16.3278C8.15387 16.2205 8.14412 16.0855 8.19737 15.9693L10.5044 10.8978C10.5651 10.7635 10.6986 10.678 10.8456 10.678H13.9116C14.0391 10.678 14.1584 10.7425 14.2274 10.8498C14.2964 10.957 14.3061 11.092 14.2529 11.2083L13.3791 13.1298L16.0334 13.5483C16.1729 13.57 16.2884 13.669 16.3319 13.804C16.3754 13.9383 16.3394 14.086 16.2389 14.185L9.28562 21.0625C9.21287 21.1345 9.11762 21.1713 9.02162 21.1713Z" fill="black"/>
</svg>

<svg xmlns="http://www.w3.org/2000/svg" width="24" height="24" fill="none" viewBox="0 0 24 24"><path fill="currentColor" fill-rule="evenodd" d="M13.235 6.737a.894.894 0 0 1-1.786 0 .894.894 0 0 1 1.786 0M5.255 8.53a.75.75 0 0 0 .894-.573 6.32 6.32 0 0 1 3.773-4.483c.365.379.703.824.982 1.361a2.38 2.38 0 0 0-.955 1.9 2.395 2.395 0 0 0 2.393 2.394 2.395 2.395 0 0 0 2.393-2.393 2.395 2.395 0 0 0-2.4-2.392h-.006a7.6 7.6 0 0 0-.79-1.292 6 6 0 0 1 .952-.047c3.323.122 6.026 3.038 6.026 6.501v5.351a.75.75 0 1 0 1.5 0v-5.35c0-4.26-3.351-7.85-7.47-8a7.7 7.7 0 0 0-2.26.252C8.29.167 5.997.008 5.858 0a.75.75 0 1 0-.087 1.498c.024.001 1.398.101 2.818.93a7.81 7.81 0 0 0-3.905 5.21.75.75 0 0 0 .571.893m14.012 8.24a.75.75 0 0 0-.75.75v4.978H6V10.496a.75.75 0 1 0-1.5 0v12.381A1.12 1.12 0 0 0 5.62 24H18.9c.616 0 1.118-.503 1.118-1.122V17.52a.75.75 0 0 0-.75-.75m-10.245 4.4a.375.375 0 0 1-.341-.53l1.883-4.141H8.539a.375.375 0 0 1-.342-.53l2.307-5.072a.37.37 0 0 1 .342-.22h3.066a.375.375 0 0 1 .34.53l-.873 1.922 2.654.418a.375.375 0 0 1 .206.637l-6.953 6.877a.37.37 0 0 1-.264.11" clip-rule="evenodd"/></svg>
